theme/img/business/txt_n_1.svg

<svg width="61" height="61" viewBox="0 0 61 61" fill="none" xmlns="http://www.w3.org/2000/svg">
<path d="M0 60.0938C0.5625 55.8438 0.828125 51.0156 0.796875 45.6094V15.9844C0.796875 9.48438 0.546875 4.65625 0.046875 1.5H19.0781V5.53125C19.0781 5.625 19.0625 5.89062 19.0312 6.32812C19.0312 6.67188 19.0156 7.03125 18.9844 7.40625C18.9844 7.65625 18.9844 7.92188 18.9844 8.20312C21.2969 5.98438 23.5781 4.28125 25.8281 3.09375C29.7031 1.03125 34.0312 0 38.8125 0C45.4688 0 50.5938 1.79688 54.1875 5.39062C56.6562 7.85938 58.2344 10.7188 58.9219 13.9688C59.4219 16.25 59.6719 18.7656 59.6719 21.5156V45.6562C59.6719 51.7812 59.9375 56.5938 60.4688 60.0938H40.5C41 56.125 41.25 51.2969 41.25 45.6094V25.9219C41.25 23.3281 41.0469 21.5 40.6406 20.4375C39.5469 17.5 37.125 16.0312 33.375 16.0312C27.9688 16.0312 23.2031 19.4062 19.0781 26.1562V45.6094C19.0781 50.7969 19.3281 55.625 19.8281 60.0938H0Z" fill="url(#paint0_linear_194_115)"/>
<defs>
<linearGradient id="paint0_linear_194_115" x1="-89.7188" y1="24.6406" x2="967.281" y2="24.6406" gradientUnits="userSpaceOnUse">
<stop stop-color="#001F63"/>
<stop offset="1" stop-color="#00E1EC"/>
</linearGradient>
</defs>
</svg>

<svg xmlns="http://www.w3.org/2000/svg" width="61" height="61" fill="none"><path fill="url(#a)" d="M0 60.094q.844-6.375.797-14.485V15.984q0-9.75-.75-14.484h19.031v4.031q0 .141-.047.797 0 .516-.047 1.078v.797q3.47-3.328 6.844-5.11Q31.64 0 38.813 0q9.984 0 15.374 5.39 3.704 3.704 4.735 8.579.75 3.422.75 7.547v24.14q0 9.188.797 14.438H40.5q.75-5.953.75-14.485V25.922q0-3.89-.61-5.485-1.64-4.406-7.265-4.406-8.11 0-14.297 10.125V45.61q0 7.782.75 14.485z"/><defs><linearGradient id="a" x1="-89.719" x2="967.281" y1="24.641" y2="24.641" gradientUnits="userSpaceOnUse"><stop stop-color="#001F63"/><stop offset="1" stop-color="#00E1EC"/></linearGradient></defs></svg>
